X: 63
T: Power is in the Heaven
N: Derived from pawnee63.krn
O: Oklahoma, U.S.A.
N: from Pawnee Music by Frances Densmore, 1926
Z: transcribed to **kern format by David Huron, August 2000
C: Skidi and Chaui Bands, 1919
L: 1/8
M: 3/4
Q: 1/4=88
K: C clef=bass
%%linebreak <none>
F2 [I:setbarnb 1]| 
D2D C D D | 
D2D2F2 | 
D2D C D D | 
A,2A,2A,2 | 
G,2A,< F, F,/ D,3/ | 
D,2D,2A,2 | 
F,2F, D, D, D, | 
D,2D,3D, | 
D,6 | 
D,4 |]  



